img/icons/skills/Mongo.db.svg

<svg width="161" height="65" viewBox="0 0 161 65" fill="none" xmlns="http://www.w3.org/2000/svg">
<rect width="161" height="65" fill="white"/>
<path fill-rule="evenodd" clip-rule="evenodd" d="M149.973 26.5733C149.829 26.6018 149.685 26.9147 149.685 27.0853C149.656 28.2229 149.627 31.2381 149.627 33.2858C149.627 33.3428 149.713 33.4564 149.8 33.4564C150.232 33.4849 151.271 33.5134 152.165 33.5134C153.405 33.5134 154.126 33.3428 154.53 33.1722C155.568 32.6602 156.058 31.5508 156.058 30.3277C156.058 27.5688 154.097 26.5163 151.184 26.5163C150.982 26.4881 150.406 26.4881 149.973 26.5733ZM157.413 39.2873C157.413 36.4716 155.308 34.907 151.501 34.907C151.328 34.907 150.117 34.8786 149.829 34.9355C149.742 34.964 149.627 35.0209 149.627 35.1064C149.627 37.1257 149.598 40.3398 149.685 41.5911C149.742 42.1316 150.146 42.8996 150.636 43.1272C151.155 43.4117 152.338 43.4683 153.145 43.4683C155.423 43.4683 157.413 42.217 157.413 39.2873ZM144.09 25.009C144.378 25.009 145.244 25.0942 147.464 25.0942C149.569 25.0942 151.242 25.0375 153.289 25.0375C155.798 25.0375 159.259 25.9192 159.259 29.6166C159.259 31.4371 157.961 32.8877 156.26 33.5988C156.173 33.6273 156.173 33.684 156.26 33.7124C158.682 34.3099 160.816 35.789 160.816 38.5763C160.816 41.3069 159.086 43.0417 156.577 44.1227C155.048 44.7768 153.145 45.0044 151.213 45.0044C149.742 45.0044 145.792 44.8338 143.6 44.8907C143.369 44.8053 143.802 43.7813 144.004 43.6107C144.523 43.5822 144.926 43.5538 145.474 43.3832C146.253 43.1841 146.339 42.9566 146.455 41.7905C146.513 40.7949 146.513 37.2678 146.513 34.7649C146.513 31.3232 146.541 28.991 146.513 27.8533C146.484 26.9717 146.166 26.6872 145.532 26.5163C145.042 26.4312 144.234 26.3173 143.571 26.2321C143.427 26.0897 143.917 25.1227 144.09 25.009ZM127.45 42.7006C128.143 43.2408 129.498 43.4683 130.709 43.4683C132.267 43.4683 133.824 43.1841 135.323 41.8471C136.852 40.482 137.919 38.3772 137.919 35.0209C137.919 31.8068 136.679 29.19 134.141 27.6542C132.699 26.7723 130.853 26.4027 128.719 26.4027C128.085 26.4027 127.479 26.4312 127.105 26.6018C127.018 26.6587 126.816 26.9147 126.816 27.0568C126.758 27.6258 126.758 32.0058 126.758 34.5659C126.758 37.2111 126.758 40.9085 126.816 41.3351C126.816 41.762 127.018 42.4161 127.45 42.7006ZM120.904 25.009C121.452 25.009 123.557 25.0942 124.567 25.0942C126.384 25.0942 127.681 25.009 131.113 25.009C133.997 25.009 136.419 25.7771 138.149 27.2274C140.254 29.0194 141.35 31.4941 141.35 34.5089C141.35 38.8038 139.361 41.2784 137.371 42.7006C135.381 44.1512 132.785 45.0044 129.094 45.0044C127.133 45.0044 123.759 44.9474 120.962 44.9189H120.933C120.789 44.6632 121.164 43.6677 121.394 43.6392C122.144 43.5538 122.346 43.5253 122.721 43.3832C123.327 43.1556 123.442 42.8427 123.529 41.7905C123.615 39.8278 123.586 37.4671 123.586 34.7934C123.586 32.8877 123.615 29.1615 123.557 27.9669C123.471 26.9717 123.038 26.7157 122.173 26.5448C121.741 26.4596 121.164 26.3457 120.356 26.2606C120.241 26.0613 120.76 25.1796 120.904 25.009Z" fill="#8E714E"/>
<path fill-rule="evenodd" clip-rule="evenodd" d="M86.0104 43.8097C85.2894 43.7243 84.7703 43.6107 84.1357 43.3262C84.0494 43.2692 83.905 42.985 83.905 42.8711C83.8473 41.8756 83.8473 39.0313 83.8473 37.1256C83.8473 35.5896 83.588 34.2529 82.9245 33.3143C82.1458 32.2333 81.0213 31.6077 79.5794 31.6077C78.3104 31.6077 76.609 32.4611 75.196 33.6557C75.1671 33.6839 74.9364 33.8832 74.9653 33.5703C74.9653 33.2573 75.023 32.6317 75.0519 32.2051C75.0807 31.8067 74.8501 31.6077 74.8501 31.6077C73.927 32.0627 71.3317 32.6602 70.38 32.7453C69.688 32.8877 69.515 33.5418 70.236 33.7693H70.2648C71.0432 33.9969 71.5624 34.2529 71.966 34.5089C72.2544 34.7364 72.2256 35.0494 72.2256 35.3054C72.2544 37.4386 72.2544 40.7095 72.1681 42.5015C72.1392 43.2126 71.9374 43.4683 71.4183 43.5822L71.4758 43.5537C71.0721 43.6392 70.7548 43.7243 70.2646 43.7813C70.0916 43.9518 70.0916 44.8622 70.2646 45.0613C70.5819 45.0613 72.2544 44.9759 73.6389 44.9759C75.5421 44.9759 76.5226 45.0613 77.0129 45.0613C77.2147 44.8338 77.2724 43.9803 77.157 43.7813C76.609 43.7528 76.2053 43.6961 75.8306 43.5822C75.3114 43.4683 75.1671 43.2126 75.1382 42.6151C75.0807 41.1076 75.0807 37.9221 75.0807 35.7604C75.0807 35.163 75.2537 34.8785 75.4267 34.7079C76.0899 34.1393 77.157 33.7409 78.1086 33.7409C79.0314 33.7409 79.6371 34.0254 80.0985 34.3953C80.7328 34.907 80.9346 35.6465 81.0213 36.187C81.1653 37.4101 81.1079 39.8278 81.1079 41.9325C81.1079 43.0702 81.0213 43.3547 80.5887 43.4968C80.3869 43.5822 79.8678 43.6961 79.2621 43.7528C79.0602 43.9518 79.118 44.8338 79.2621 45.0328C80.0985 45.0328 81.079 44.9474 82.5209 44.9474C84.3087 44.9474 85.4624 45.0328 85.9238 45.0328C86.0679 44.8622 86.1256 44.0373 86.0101 43.8097H86.0104ZM93.9985 32.9446C92.47 32.9446 91.5184 34.1108 91.5184 35.931C91.5184 37.7798 92.3545 39.913 94.7195 39.913C95.1231 39.913 95.8729 39.7424 96.2188 39.3443C96.7668 38.8323 97.1419 37.8082 97.1419 36.7275C97.1419 34.3668 95.9593 32.9446 93.9985 32.9446ZM93.7964 45.5164C93.2198 45.5164 92.8159 45.6869 92.5566 45.8293C91.3452 46.5971 90.7974 47.3366 90.7974 48.2185C90.7974 49.0432 91.1145 49.6973 91.8068 50.2663C92.643 50.9774 93.7964 51.3188 95.2672 51.3188C98.2087 51.3188 99.5065 49.7543 99.5065 48.2185C99.5065 47.1375 98.9585 46.4265 97.8339 46.0284C97.0264 45.6869 95.5556 45.5164 93.7964 45.5164ZM93.9985 52.9115C92.2393 52.9115 90.9704 52.5416 89.8747 51.7169C88.8076 50.9204 88.3462 49.7258 88.3462 48.9011C88.3462 48.6736 88.4039 48.0477 88.923 47.479C89.2401 47.1375 89.9321 46.4834 91.5761 45.3742C91.6336 45.3458 91.6625 45.3173 91.6625 45.2603C91.6625 45.2034 91.6047 45.1464 91.5473 45.1182C90.1917 44.6062 89.7881 43.7813 89.6726 43.3262V43.2692C89.644 43.0987 89.5863 42.9281 89.8458 42.7572C90.0476 42.6151 90.3361 42.4445 90.6531 42.2455C91.1433 41.961 91.6625 41.6481 91.9798 41.392C92.0375 41.3351 92.0375 41.2784 92.0375 41.2215C92.0375 41.1645 91.9798 41.1076 91.922 41.0794C89.9035 40.425 88.8942 38.9459 88.8942 36.7275C88.8942 35.2769 89.5574 33.9684 90.7397 33.1437C91.5473 32.5178 93.5657 31.75 94.8924 31.75H94.979C96.3343 31.7782 97.0841 32.0627 98.151 32.4326C98.7278 32.6317 99.2758 32.7168 100.026 32.7168C101.15 32.7168 101.64 32.3757 102.044 31.9776C102.073 32.0343 102.131 32.1766 102.16 32.5463C102.188 32.9162 102.073 33.4564 101.785 33.8548C101.554 34.1675 101.035 34.3953 100.516 34.3953H100.372C99.8524 34.3383 99.6217 34.2814 99.6217 34.2814L99.5065 34.3383C99.4776 34.3953 99.5065 34.4519 99.5354 34.5374L99.5643 34.5943C99.6217 34.8503 99.7372 35.6181 99.7372 35.8174C99.7372 38.1497 98.7856 39.1734 97.7762 39.9414C96.7957 40.6525 95.6711 41.1076 94.4022 41.2215C94.3733 41.2215 94.2581 41.2215 93.9985 41.2499C93.8542 41.2499 93.6523 41.2784 93.6235 41.2784H93.5946C93.3639 41.3351 92.7873 41.6196 92.7873 42.1031C92.7873 42.5297 93.0469 43.0417 94.2867 43.1271C94.5462 43.1556 94.8058 43.1556 95.0942 43.1841C96.7379 43.2977 98.7856 43.4401 99.7372 43.7528C101.064 44.2363 101.9 45.4025 101.9 46.7964C101.9 48.9011 100.372 50.8637 97.8339 52.0866C96.5939 52.627 95.3538 52.9115 93.9985 52.9115ZM110.436 33.0868C109.83 33.0868 109.282 33.2289 108.879 33.5133C107.754 34.1959 107.177 35.5614 107.177 37.5522C107.177 41.2784 109.081 43.8952 111.791 43.8952C112.599 43.8952 113.233 43.6676 113.781 43.2126C114.617 42.5297 115.05 41.1645 115.05 39.2588C115.05 35.5614 113.176 33.0868 110.436 33.0868ZM110.955 45.2603C106.053 45.2603 104.294 41.705 104.294 38.3772C104.294 36.0449 105.245 34.2529 107.148 32.9729C108.504 32.1482 110.119 31.6931 111.561 31.6931C115.31 31.6931 117.934 34.3383 117.934 38.1497C117.934 40.7379 116.896 42.7857 114.906 44.0373C113.954 44.6629 112.311 45.2603 110.955 45.2603H110.955ZM59.5659 33.0868C58.9601 33.0868 58.4124 33.2289 58.0085 33.5133C56.8839 34.1959 56.3071 35.5614 56.3071 37.5522C56.3071 41.2784 58.2103 43.8952 60.9212 43.8952C61.7287 43.8952 62.363 43.6676 62.911 43.2126C63.7472 42.5297 64.18 41.1645 64.18 39.2588C64.18 35.5614 62.3342 33.0868 59.5659 33.0868ZM60.085 45.2603C55.1825 45.2603 53.4233 41.705 53.4233 38.3772C53.4233 36.0449 54.3749 34.2529 56.2782 32.9729C57.6337 32.1482 59.2486 31.6931 60.6905 31.6931C64.4395 31.6931 67.0637 34.3383 67.0637 38.1497C67.0637 40.7379 66.0255 42.7857 64.0356 44.0373C63.1129 44.6629 61.4691 45.2603 60.085 45.2603ZM27.1231 44.9759C27.0654 44.8907 27.0076 44.6347 27.0365 44.3217C27.0365 44.0942 27.0942 43.9518 27.1231 43.8952C27.7286 43.8097 28.0459 43.7243 28.3918 43.6392C28.9686 43.4968 29.1993 43.1841 29.2282 42.473C29.3148 40.7664 29.3148 37.5237 29.2859 35.2769V35.22C29.2859 34.964 29.2859 34.651 28.9686 34.4235C28.5073 34.1393 27.9593 33.8832 27.2383 33.6839C26.9788 33.5988 26.8058 33.4564 26.8347 33.2858C26.8347 33.1152 27.0076 32.9162 27.3827 32.8592C28.3343 32.7738 30.8142 32.1766 31.7947 31.75C31.8524 31.8067 31.939 31.9776 31.939 32.2051L31.9102 32.5178C31.8813 32.8307 31.8524 33.2007 31.8524 33.5703C31.8524 33.6839 31.9679 33.7693 32.0831 33.7693C32.1409 33.7693 32.1986 33.7409 32.2563 33.7124C34.1019 32.2903 35.7744 31.7782 36.6395 31.7782C38.0528 31.7782 39.1485 32.4326 39.9849 33.7978C40.0424 33.8832 40.1001 33.9115 40.1867 33.9115C40.2445 33.9115 40.3308 33.8832 40.3597 33.8263C42.0611 32.5463 43.7626 31.7782 44.8872 31.7782C47.5691 31.7782 49.1554 33.7409 49.1554 37.0687C49.1554 38.0073 49.1554 39.2304 49.1265 40.3398C49.1265 41.3351 49.0976 42.2455 49.0976 42.8996C49.0976 43.0417 49.2994 43.4968 49.6167 43.5822C50.0204 43.7813 50.5684 43.8667 51.2893 43.9803H51.3182C51.3759 44.1794 51.2604 44.9189 51.1452 45.0613C50.972 45.0613 50.7125 45.0613 50.4243 45.0328C49.8763 45.0043 49.0976 44.9759 48.2326 44.9759C46.4445 44.9759 45.5218 45.0043 44.6276 45.0613C44.5701 44.8338 44.5413 44.1512 44.6276 43.9803C45.1467 43.8952 45.4063 43.8097 45.7236 43.7243C46.3005 43.5537 46.4445 43.2977 46.4734 42.5582C46.4734 42.018 46.5886 37.4101 46.4157 36.3007C46.2427 35.163 45.3774 33.8263 43.4741 33.8263C42.7532 33.8263 41.6286 34.1108 40.5326 34.9355C40.4752 34.9924 40.4174 35.1345 40.4174 35.22V35.2484C40.5326 35.8456 40.5326 36.5285 40.5326 37.5807V39.4294C40.5326 40.7095 40.5038 41.9041 40.5326 42.8142C40.5326 43.4401 40.9077 43.5822 41.225 43.6961C41.3979 43.7243 41.5131 43.7528 41.6575 43.7813C41.917 43.8382 42.1766 43.8952 42.5802 43.9803C42.638 44.0942 42.638 44.4639 42.5514 44.7768C42.5225 44.9474 42.4648 45.0328 42.4362 45.0613C41.4557 45.0328 40.4463 45.0043 38.9755 45.0043C38.543 45.0043 37.7932 45.0328 37.1586 45.0328C36.6395 45.0328 36.1492 45.0613 35.8611 45.0613C35.8322 45.0043 35.7744 44.8053 35.7744 44.4923C35.7744 44.2363 35.8322 44.0373 35.8899 43.9803C36.034 43.9518 36.1492 43.9236 36.2936 43.9236C36.6395 43.8667 36.9279 43.8097 37.2163 43.7528C37.7066 43.6107 37.8795 43.3547 37.9084 42.729C37.995 41.3069 38.0814 37.2395 37.8795 36.2155C37.5336 34.5658 36.582 33.7409 35.0535 33.7409C34.1596 33.7409 33.0348 34.1675 32.112 34.8503C31.9679 34.964 31.8524 35.2484 31.8524 35.5044V37.1826C31.8524 39.2304 31.8524 41.7904 31.8813 42.8996C31.9102 43.2408 32.0254 43.6392 32.6888 43.7813C32.8329 43.8097 33.0636 43.8667 33.3521 43.8952L33.8712 43.9803C33.9289 44.1512 33.9 44.8338 33.7846 45.0613C33.4961 45.0613 33.1502 45.0328 32.7463 45.0328C32.1409 45.0043 31.3622 44.9759 30.4971 44.9759C29.4878 44.9759 28.7668 45.0043 28.19 45.0328C27.7863 44.9759 27.469 44.9759 27.1231 44.9759Z" fill="#442D22"/>
<path fill-rule="evenodd" clip-rule="evenodd" d="M11.9541 51.8024L10.7718 51.404C10.7718 51.404 10.9162 45.4594 8.75333 45.0328C7.31144 43.3832 8.98402 -24.9369 14.1747 44.8053C14.1747 44.8053 12.3869 45.687 12.0696 47.1945C11.7234 48.6736 11.9541 51.8024 11.9541 51.8024Z" fill="white"/>
<path fill-rule="evenodd" clip-rule="evenodd" d="M11.9541 51.8024L10.7718 51.404C10.7718 51.404 10.9162 45.4594 8.75333 45.0328C7.31144 43.3832 8.98402 -24.9369 14.1747 44.8053C14.1747 44.8053 12.3869 45.687 12.0696 47.1945C11.7234 48.6736 11.9541 51.8024 11.9541 51.8024Z" fill="#A6A385"/>
<path fill-rule="evenodd" clip-rule="evenodd" d="M12.5887 46.0567C12.5887 46.0567 22.9414 39.3441 20.519 25.3785C18.1833 15.2245 12.675 11.8966 12.0695 10.6166C11.4063 9.70649 10.7717 8.11377 10.7717 8.11377L11.2045 36.3574C11.2045 36.3859 10.3103 45.0042 12.5887 46.0567Z" fill="white"/>
<path fill-rule="evenodd" clip-rule="evenodd" d="M12.5887 46.0567C12.5887 46.0567 22.9414 39.3441 20.519 25.3785C18.1833 15.2245 12.675 11.8966 12.0695 10.6166C11.4063 9.70649 10.7717 8.11377 10.7717 8.11377L11.2045 36.3574C11.2045 36.3859 10.3103 45.0042 12.5887 46.0567Z" fill="#499D4A"/>
<path fill-rule="evenodd" clip-rule="evenodd" d="M10.1663 46.4264C10.1663 46.4264 0.447838 39.8844 1.0247 28.3652C1.57242 16.8458 8.43596 11.1857 9.76237 10.1617C10.6277 9.25155 10.6565 8.91012 10.7143 8C11.3197 9.28003 11.2045 27.1422 11.2909 29.2469C11.5504 37.3531 10.8295 44.8907 10.1663 46.4264Z" fill="white"/>
<path fill-rule="evenodd" clip-rule="evenodd" d="M10.1663 46.4264C10.1663 46.4264 0.447838 39.8844 1.0247 28.3652C1.57242 16.8458 8.43596 11.1857 9.76237 10.1617C10.6277 9.25155 10.6565 8.91012 10.7143 8C11.3197 9.28003 11.2045 27.1422 11.2909 29.2469C11.5504 37.3531 10.8295 44.8907 10.1663 46.4264Z" fill="#58AA50"/>
</svg>

<svg width="161" height="65" fill="none" xmlns="http://www.w3.org/2000/svg"><path fill="#fff" d="M0 0h161v65H0z"/><path fill-rule="evenodd" clip-rule="evenodd" d="M149.973 26.573c-.144.029-.288.342-.288.512a337.539 337.539 0 00-.058 6.2c0 .058.086.171.173.171.432.029 1.471.057 2.365.057 1.24 0 1.961-.17 2.365-.34 1.038-.513 1.528-1.622 1.528-2.845 0-2.76-1.961-3.812-4.874-3.812a4.702 4.702 0 00-1.211.057zm7.44 12.714c0-2.815-2.105-4.38-5.912-4.38-.173 0-1.384-.028-1.672.029-.087.028-.202.085-.202.17 0 2.02-.029 5.234.058 6.485.057.54.461 1.309.951 1.536.519.285 1.702.341 2.509.341 2.278 0 4.268-1.251 4.268-4.18zM144.09 25.01c.288 0 1.154.085 3.374.085 2.105 0 3.778-.056 5.825-.056 2.509 0 5.97.881 5.97 4.579 0 1.82-1.298 3.27-2.999 3.982-.087.028-.087.085 0 .113 2.422.598 4.556 2.077 4.556 4.864 0 2.73-1.73 4.466-4.239 5.547-1.529.654-3.432.881-5.364.881-1.471 0-5.421-.17-7.613-.113-.231-.086.202-1.11.404-1.28.519-.029.922-.057 1.47-.228.779-.199.865-.426.981-1.593.058-.995.058-4.522.058-7.025 0-3.442.028-5.774 0-6.912-.029-.881-.347-1.166-.981-1.337a52.739 52.739 0 00-1.961-.284c-.144-.142.346-1.11.519-1.223zm-16.64 17.692c.693.54 2.048.767 3.259.767 1.558 0 3.115-.284 4.614-1.62 1.529-1.366 2.596-3.47 2.596-6.827 0-3.214-1.24-5.831-3.778-7.367-1.442-.882-3.288-1.251-5.422-1.251-.634 0-1.24.028-1.614.199-.087.057-.289.313-.289.455-.058.569-.058 4.949-.058 7.509 0 2.645 0 6.342.058 6.77 0 .426.202 1.08.634 1.365zm-6.546-17.692c.548 0 2.653.085 3.663.085 1.817 0 3.114-.085 6.546-.085 2.884 0 5.306.768 7.036 2.218 2.105 1.792 3.201 4.267 3.201 7.282 0 4.295-1.989 6.77-3.979 8.192-1.99 1.45-4.586 2.303-8.277 2.303-1.961 0-5.335-.057-8.132-.085h-.029c-.144-.256.231-1.251.461-1.28.75-.085.952-.114 1.327-.256.606-.227.721-.54.808-1.593.086-1.962.057-4.323.057-6.997 0-1.905.029-5.631-.029-6.826-.086-.995-.519-1.251-1.384-1.422-.432-.085-1.009-.2-1.817-.284-.115-.2.404-1.081.548-1.252z" fill="#8E714E"/><path fill-rule="evenodd" clip-rule="evenodd" d="M86.01 43.81c-.72-.086-1.24-.2-1.874-.484-.087-.057-.231-.341-.231-.455-.058-.995-.058-3.84-.058-5.745 0-1.536-.259-2.873-.922-3.812-.78-1.08-1.904-1.706-3.346-1.706-1.269 0-2.97.853-4.383 2.048-.029.028-.26.227-.23-.086 0-.313.057-.938.086-1.365.029-.398-.202-.597-.202-.597-.923.455-3.518 1.052-4.47 1.137-.692.143-.865.797-.144 1.024h.029c.778.228 1.297.484 1.701.74.288.227.26.54.26.796.028 2.134.028 5.404-.058 7.197-.029.71-.23.966-.75 1.08l.058-.028c-.404.085-.721.17-1.211.227-.173.17-.173 1.081 0 1.28.317 0 1.99-.085 3.374-.085 1.903 0 2.884.085 3.374.085.202-.227.26-1.08.144-1.28-.548-.028-.952-.085-1.326-.199-.52-.114-.664-.37-.693-.967-.057-1.507-.057-4.693-.057-6.855 0-.597.173-.881.346-1.052.663-.569 1.73-.967 2.682-.967.922 0 1.528.284 1.99.654.634.512.836 1.252.922 1.792.144 1.223.087 3.64.087 5.745 0 1.138-.087 1.423-.52 1.565-.201.085-.72.2-1.326.256-.202.199-.144 1.08 0 1.28.837 0 1.817-.086 3.259-.086 1.788 0 2.941.086 3.403.086.144-.17.202-.996.086-1.223zM94 32.945c-1.529 0-2.48 1.166-2.48 2.986 0 1.849.835 3.982 3.2 3.982.404 0 1.154-.17 1.5-.569.548-.512.923-1.536.923-2.617 0-2.36-1.183-3.782-3.143-3.782zm-.203 12.571c-.576 0-.98.17-1.24.313-1.21.768-1.759 1.508-1.759 2.39 0 .824.318 1.478 1.01 2.047.836.711 1.99 1.053 3.46 1.053 2.942 0 4.24-1.565 4.24-3.1 0-1.081-.549-1.793-1.673-2.19-.808-.342-2.278-.513-4.038-.513zM94 52.911c-1.76 0-3.029-.37-4.124-1.194-1.067-.797-1.529-1.991-1.529-2.816 0-.227.058-.853.577-1.422.317-.341 1.01-.996 2.653-2.105.058-.028.087-.057.087-.114s-.058-.114-.116-.142c-1.355-.512-1.759-1.337-1.874-1.792v-.057c-.029-.17-.087-.34.173-.512.202-.142.49-.313.807-.511.49-.285 1.01-.598 1.327-.854.057-.057.057-.114.057-.17 0-.058-.057-.114-.115-.143-2.019-.654-3.028-2.133-3.028-4.352 0-1.45.663-2.759 1.846-3.583.807-.626 2.826-1.394 4.152-1.394h.087c1.355.028 2.105.313 3.172.683.577.199 1.125.284 1.875.284 1.124 0 1.614-.341 2.018-.74.029.057.087.2.116.57.028.37-.087.91-.375 1.308-.231.313-.75.54-1.269.54h-.144a6.518 6.518 0 01-.75-.114l-.115.057c-.03.057 0 .114.028.2l.03.056c.057.256.172 1.024.172 1.223 0 2.333-.951 3.356-1.96 4.124a6.693 6.693 0 01-3.375 1.28c-.029 0-.144 0-.403.029-.145 0-.347.028-.375.028h-.03c-.23.057-.807.342-.807.825 0 .427.26.939 1.5 1.024.26.029.519.029.807.057 1.644.114 3.692.256 4.643.569 1.327.483 2.163 1.65 2.163 3.043 0 2.105-1.528 4.068-4.066 5.29-1.24.541-2.48.825-3.835.825zm16.437-19.824c-.606 0-1.154.142-1.557.426-1.125.683-1.702 2.048-1.702 4.04 0 3.725 1.904 6.342 4.614 6.342.808 0 1.442-.227 1.99-.682.836-.683 1.269-2.049 1.269-3.954 0-3.698-1.874-6.172-4.614-6.172zm.519 12.173c-4.902 0-6.661-3.555-6.661-6.883 0-2.332.951-4.124 2.854-5.404 1.356-.825 2.971-1.28 4.413-1.28 3.749 0 6.373 2.645 6.373 6.457 0 2.588-1.038 4.636-3.028 5.887-.952.626-2.595 1.223-3.951 1.223zm-51.39-12.173c-.605 0-1.153.142-1.556.426-1.125.683-1.702 2.048-1.702 4.04 0 3.725 1.903 6.342 4.614 6.342.808 0 1.442-.227 1.99-.682.836-.683 1.269-2.049 1.269-3.954 0-3.698-1.846-6.172-4.614-6.172zm.52 12.173c-4.903 0-6.662-3.555-6.662-6.883 0-2.332.952-4.124 2.855-5.404 1.356-.825 2.97-1.28 4.413-1.28 3.748 0 6.373 2.645 6.373 6.457 0 2.588-1.038 4.636-3.028 5.887-.923.626-2.567 1.223-3.951 1.223zm-32.962-.284c-.058-.085-.115-.341-.087-.654 0-.228.058-.37.087-.427.606-.085.923-.17 1.269-.256.577-.142.807-.455.836-1.166.087-1.707.087-4.95.058-7.196v-.057c0-.256 0-.569-.317-.797a6.543 6.543 0 00-1.73-.74c-.26-.084-.433-.227-.404-.397 0-.17.173-.37.548-.427.951-.085 3.431-.682 4.412-1.109.057.057.144.228.144.455l-.029.313c-.029.313-.058.683-.058 1.052 0 .114.116.2.231.2a.413.413 0 00.173-.058c1.846-1.422 3.518-1.934 4.383-1.934 1.414 0 2.51.655 3.346 2.02.057.085.115.113.202.113.058 0 .144-.028.173-.085 1.701-1.28 3.403-2.048 4.527-2.048 2.682 0 4.268 1.963 4.268 5.29 0 .94 0 2.162-.029 3.272 0 .995-.028 1.905-.028 2.56 0 .142.201.597.519.682.403.2.951.285 1.672.398h.03c.057.2-.059.939-.174 1.081-.173 0-.433 0-.72-.028a43.134 43.134 0 00-2.192-.057c-1.788 0-2.711.028-3.605.085-.058-.227-.087-.91 0-1.08.519-.086.778-.171 1.096-.257.577-.17.72-.426.75-1.166 0-.54.115-5.148-.058-6.257-.173-1.138-1.039-2.475-2.942-2.475-.72 0-1.845.285-2.941 1.11a.503.503 0 00-.116.284v.028c.116.598.116 1.28.116 2.333v1.848c0 1.28-.03 2.475 0 3.385 0 .626.375.768.692.882.173.028.288.057.432.085.26.057.52.114.923.2.058.113.058.483-.029.796-.029.17-.086.256-.115.284-.98-.028-1.99-.057-3.46-.057-.433 0-1.183.029-1.817.029-.52 0-1.01.028-1.298.028-.029-.057-.087-.256-.087-.569 0-.256.058-.455.116-.512.144-.028.26-.056.404-.056.346-.057.634-.114.922-.171.49-.142.663-.398.692-1.024.087-1.422.173-5.49-.029-6.514-.345-1.65-1.297-2.474-2.825-2.474-.894 0-2.02.426-2.942 1.11-.144.113-.26.397-.26.653v1.679c0 2.047 0 4.607.03 5.717.028.34.143.74.807.881.144.029.375.086.663.114l.52.085c.057.171.028.854-.087 1.081-.289 0-.635-.028-1.039-.028a47.778 47.778 0 00-2.249-.057c-1.01 0-1.73.028-2.307.057-.404-.057-.721-.057-1.067-.057z" fill="#442D22"/><path fill-rule="evenodd" clip-rule="evenodd" d="M11.954 51.802l-1.182-.398s.144-5.945-2.019-6.371c-1.442-1.65.231-69.97 5.422-.228 0 0-1.788.882-2.105 2.39-.347 1.479-.116 4.607-.116 4.607z" fill="#fff"/><path fill-rule="evenodd" clip-rule="evenodd" d="M11.954 51.802l-1.182-.398s.144-5.945-2.019-6.371c-1.442-1.65.231-69.97 5.422-.228 0 0-1.788.882-2.105 2.39-.347 1.479-.116 4.607-.116 4.607z" fill="#A6A385"/><path fill-rule="evenodd" clip-rule="evenodd" d="M12.589 46.057s10.352-6.713 7.93-20.679c-2.336-10.153-7.844-13.481-8.45-14.761-.663-.91-1.297-2.503-1.297-2.503l.432 28.243c0 .029-.894 8.647 1.385 9.7z" fill="#fff"/><path fill-rule="evenodd" clip-rule="evenodd" d="M12.589 46.057s10.352-6.713 7.93-20.679c-2.336-10.153-7.844-13.481-8.45-14.761-.663-.91-1.297-2.503-1.297-2.503l.432 28.243c0 .029-.894 8.647 1.385 9.7z" fill="#499D4A"/><path fill-rule="evenodd" clip-rule="evenodd" d="M10.166 46.426s-9.718-6.542-9.141-18.06c.547-11.52 7.411-17.18 8.737-18.204.866-.91.894-1.252.952-2.162.606 1.28.49 19.142.577 21.247.26 8.106-.462 15.644-1.125 17.18z" fill="#fff"/><path fill-rule="evenodd" clip-rule="evenodd" d="M10.166 46.426s-9.718-6.542-9.141-18.06c.547-11.52 7.411-17.18 8.737-18.204.866-.91.894-1.252.952-2.162.606 1.28.49 19.142.577 21.247.26 8.106-.462 15.644-1.125 17.18z" fill="#58AA50"/></svg>
